style-guide/assets/xd-icons-lock-small.svg

<?xml version="1.0" encoding="UTF-8"?>
<svg width="18px" height="18px" viewBox="0 0 18 18" version="1.1" xmlns="http://www.w3.org/2000/svg" xmlns:xlink="http://www.w3.org/1999/xlink">
    <!-- Generator: Sketch 51.3 (57544) - http://www.bohemiancoding.com/sketch -->
    <title>lock</title>
    <desc>Created with Sketch.</desc>
    <defs></defs>
    <g id="lock" stroke="none" stroke-width="1" fill="none" fill-rule="evenodd">
        <path d="M14,16 L4,16 L4,8 L6,8 L12,8 L14,8 L14,16 Z M7,4 C7,2.896 7.897,2 9,2 C10.103,2 11,2.896 11,4 L11,6 L7,6 L7,4 Z M15,6 L13,6 L13,4 C13,1.795 11.206,0 9,0 C6.794,0 5,1.795 5,4 L5,6 L3,6 C2.448,6 2,6.447 2,7 L2,17 C2,17.553 2.448,18 3,18 L15,18 C15.552,18 16,17.553 16,17 L16,7 C16,6.447 15.552,6 15,6 Z M10,10 L8,10 C7.448,10 7,10.447 7,11 C7,11.553 7.448,12 8,12 L8,13 C8,13.553 8.448,14 9,14 C9.552,14 10,13.553 10,13 L10,12 C10.552,12 11,11.553 11,11 C11,10.447 10.552,10 10,10" id="Fill-1" fill="#000000"></path>
    </g>
</svg>

<svg viewBox="0 0 18 18" xmlns="http://www.w3.org/2000/svg">
  <path d="M14 16H4V8h10v8zM7 4c0-1.104.897-2 2-2s2 .896 2 2v2H7V4zm8 2h-2V4c0-2.205-1.794-4-4-4S5 1.795 5 4v2H3a1 1 0 0 0-1 1v10a1 1 0 0 0 1 1h12a1 1 0 0 0 1-1V7a1 1 0 0 0-1-1zm-5 4H8a1 1 0 1 0 0 2v1a1 1 0 1 0 2 0v-1a1 1 0 1 0 0-2" fill="#000" fill-rule="evenodd"/>
</svg>
